X:893
T:Ronas Voe
S:Jack Yorston, Orkney
Z:Nigel Gatherer
M:3/4
L:1/4
K:G
B,C | D3 | B2F | AG2 | D2G | E2G | A2G | B3 | B
B,C | D3 | B2F | AG2 | G2B | A3  | A2E | A3 | A 
B,C | D3 | B2F | AG2 | D2G | E2G | A2G | B3 | B2 
D   | E3 | F3  | G3  | c3  | B2D | B2A | G3 | G |]
<end>
<start>
